src/assets/images/ranks/team_unranked.svg

<svg height="240" viewBox="0 0 160 240" width="160" xmlns="http://www.w3.org/2000/svg"><g fill="none" fill-rule="evenodd"><path d="m32 57.3209354c11.7432098-14.2139569 27.6926103-21.3209354 47.8482015-21.3209354 20.1555915 0 36.1049915 7.1069785 47.8482015 21.3209354v108.2467506l-47.9235036 38.432314-47.7728994-38.432314z" fill="#625549"/><path d="m46 67.9823818c8.2520419-9.9882545 19.4598057-14.9823818 33.6232913-14.9823818s25.3712497 4.9941273 33.6232917 14.9823818v84.0109422l-33.6762071 27.006676-33.5703759-27.006676z" fill="#7e7468"/><path d="m80 125.380337 2.7356266-1.182636.3369609 1.20321c.928864 1.386359 1.8404427 2.240868 2.7347361 2.563529.8942933.32266 2.2728007.484134 4.1355222.48442 2.2952004-.491623 4.0872064-1.17876 5.376018-2.061412 1.2888117-.882652 2.9436836-2.556135 4.9646162-5.020447v-1.441032c-.4415022-.683313-.9886249-1.203846-1.6413686-1.561597s-1.8054405-.768844-3.4580904-1.233279c-3.1181279.788051-5.5099555 1.525448-7.1754828 2.212191-1.6655273.686742-3.4231645 1.660282-5.2729116 2.920621l-2.7356266 1.599292zm-15.184021-8.249244c-1.6526499.464435-2.8053467.875528-3.4580904 1.233279s-1.1998664.878284-1.6413682 1.561597v1.441032c2.0209322 2.464312 3.6758041 4.137795 4.9646158 5.020447 1.2888116.882652 3.0808176 1.569789 5.376018 2.061412 1.8627215-.000286 3.2412289-.16176 4.1355222-.48442.8942934-.322661 1.8058721-1.17717 2.7347361-2.563529l.3369609-1.20321 2.7356266 1.182636v-1.51714l-2.7356266-1.599292c-1.8497471-1.260339-3.6073843-2.233879-5.2729116-2.920621-1.6655273-.686743-4.0573549-1.42414-7.1754828-2.212191zm13.3594504 19.479862c-.4041519-.19911-.8193506-.645191-1.2455961-1.338243v-1.726745c-4.2898163 1.389563-7.1590094 2.036722-8.6075793 1.941476-4.2394175-.278747-6.0300773-3.008778-6.8744108-4.05387-1.2770849-1.580739-2.720304-4.460201-4.3296573-8.638388l-3.9120427-4.636434c-.2748576-2.733817-.2748576-4.711122 0-5.931916.2748577-1.220794.5654269-2.047231.8717076-2.47931l1.4386535-2.534067c-.0770304-.303196-.0770304-.558496 0-.7659.0770304-.207405.4003478-.487076.9699522-.839016.496814-3.013192 1.0686997-5.219117 1.7156568-6.6177742.6469572-1.398657 1.907936-3.1552025 3.7829364-5.2696366 1.1755657-1.7354769 2.5335053-3.2518994 4.0738191-4.5492674 1.5403137-1.297368 4.2761073-3.2289955 8.2073809-5.7948825 1.0852334-.5358762 1.9583171-.8817079 2.619251-1.037495.660934-.1557872 1.6991004-.2689492 3.1144993-.3394863l.3199341.0170344c1.2529506.0711644 2.1844723.1786484 2.7945652.3224519.6609339.1557871 1.5340176.5016188 2.619251 1.037495 3.9312736 2.565887 6.6670672 4.4975145 8.2073809 5.7948825 1.5403138 1.297368 2.8982534 2.8137905 4.0738191 4.5492674 1.8750004 2.1144341 3.1359797 3.8709796 3.7829367 5.2696366.646957 1.3986572 1.218842 3.6045822 1.715657 6.6177742.569604.35194.892921.631611.969952.839016.07703.207404.07703.462704 0 .7659l1.438653 2.534067c.306281.432079.59685 1.258516.871708 2.47931.274857 1.220794.274857 3.198099 0 5.931916l-3.912043 4.636434c-1.609353 4.178187-3.0525723 7.057649-4.3296572 8.638388-.8443335 1.045092-2.6349933 3.775123-6.8744108 4.05387-1.4485699.095246-4.317763-.551913-8.6075793-1.941476v1.726745c-.4262455.693052-.8414442 1.139133-1.2455961 1.338243-.4041519.199111-1.0123421.328792-1.8245706.389045-.8122285-.060253-1.4204187-.189934-1.8245706-.389045z" fill="#ffddb6"/></g></svg>

<?xml version="1.0" encoding="UTF-8"?>
<svg width="160px" height="240px" viewBox="0 0 160 240" version="1.1" xmlns="http://www.w3.org/2000/svg" xmlns:xlink="http://www.w3.org/1999/xlink">
    <title>team_unranked</title>
    <g id="team_unranked" stroke="none" stroke-width="1" fill="none" fill-rule="evenodd">
        <path d="M32,57.3209354 C43.7432098,43.1069785 59.6926103,36 79.8482015,36 C100.003793,36 115.953193,43.1069785 127.696403,57.3209354 L127.696403,165.567686 L79.7728994,204 L32,165.567686 L32,57.3209354 Z" id="Rectangle-Copy-84" fill="#625549"></path>
        <path d="M46,67.9823818 C54.2520419,57.9941273 65.4598057,53 79.6232913,53 C93.7867769,53 104.994541,57.9941273 113.246583,67.9823818 L113.246583,151.993324 L79.5703759,179 L46,151.993324 L46,67.9823818 Z" id="Rectangle-Copy-85" fill="#7E7468"></path>
        <path d="M80,125.380337 L82.7356266,124.197701 L83.0725875,125.400911 C84.0014515,126.78727 84.9130302,127.641779 85.8073236,127.96444 C86.7016169,128.2871 88.0801243,128.448574 89.9428458,128.44886 C92.2380462,127.957237 94.0300522,127.2701 95.3188638,126.387448 C96.6076755,125.504796 98.2625474,123.831313 100.28348,121.367001 L100.28348,119.925969 C99.8419778,119.242656 99.2948551,118.722123 98.6421114,118.364372 C97.9893677,118.006621 96.8366709,117.595528 95.184021,117.131093 C92.0658931,117.919144 89.6740655,118.656541 88.0085382,119.343284 C86.3430109,120.030026 84.5853737,121.003566 82.7356266,122.263905 L80,123.863197 L80,125.380337 Z M64.815979,117.131093 C63.1633291,117.595528 62.0106323,118.006621 61.3578886,118.364372 C60.7051449,118.722123 60.1580222,119.242656 59.7165204,119.925969 L59.7165204,121.367001 C61.7374526,123.831313 63.3923245,125.504796 64.6811362,126.387448 C65.9699478,127.2701 67.7619538,127.957237 70.0571542,128.44886 C71.9198757,128.448574 73.2983831,128.2871 74.1926764,127.96444 C75.0869698,127.641779 75.9985485,126.78727 76.9274125,125.400911 L77.2643734,124.197701 L80,125.380337 L80,123.863197 L77.2643734,122.263905 C75.4146263,121.003566 73.6569891,120.030026 71.9914618,119.343284 C70.3259345,118.656541 67.9341069,117.919144 64.815979,117.131093 Z M78.1754294,136.610955 C77.7712775,136.411845 77.3560788,135.965764 76.9298333,135.272712 L76.9298333,133.545967 C72.640017,134.93553 69.7708239,135.582689 68.322254,135.487443 C64.0828365,135.208696 62.2921767,132.478665 61.4478432,131.433573 C60.1707583,129.852834 58.7275392,126.973372 57.1181859,122.795185 L53.2061432,118.158751 C52.9312856,115.424934 52.9312856,113.447629 53.2061432,112.226835 C53.4810009,111.006041 53.7715701,110.179604 54.0778508,109.747525 L55.5165043,107.213458 C55.4394739,106.910262 55.4394739,106.654962 55.5165043,106.447558 C55.5935347,106.240153 55.9168521,105.960482 56.4864565,105.608542 C56.9832705,102.59535 57.5551562,100.389425 58.2021133,98.9907678 C58.8490705,97.5921108 60.1100493,95.8355653 61.9850497,93.7211312 C63.1606154,91.9856543 64.518555,90.4692318 66.0588688,89.1718638 C67.5991825,87.8744958 70.3349761,85.9428683 74.2662497,83.3769813 C75.3514831,82.8411051 76.2245668,82.4952734 76.8855007,82.3394863 C77.5464347,82.1836991 78.5846011,82.0705371 80,82 L80.3199341,82.0170344 C81.5728847,82.0881988 82.5044064,82.1956828 83.1144993,82.3394863 C83.7754332,82.4952734 84.6485169,82.8411051 85.7337503,83.3769813 C89.6650239,85.9428683 92.4008175,87.8744958 93.9411312,89.1718638 C95.481445,90.4692318 96.8393846,91.9856543 98.0149503,93.7211312 C99.8899507,95.8355653 101.15093,97.5921108 101.797887,98.9907678 C102.444844,100.389425 103.016729,102.59535 103.513544,105.608542 C104.083148,105.960482 104.406465,106.240153 104.483496,106.447558 C104.560526,106.654962 104.560526,106.910262 104.483496,107.213458 L105.922149,109.747525 C106.22843,110.179604 106.518999,111.006041 106.793857,112.226835 C107.068714,113.447629 107.068714,115.424934 106.793857,118.158751 L102.881814,122.795185 C101.272461,126.973372 99.8292417,129.852834 98.5521568,131.433573 C97.7078233,132.478665 95.9171635,135.208696 91.677746,135.487443 C90.2291761,135.582689 87.359983,134.93553 83.0701667,133.545967 L83.0701667,135.272712 C82.6439212,135.965764 82.2287225,136.411845 81.8245706,136.610955 C81.4204187,136.810066 80.8122285,136.939747 80,137 C79.1877715,136.939747 78.5795813,136.810066 78.1754294,136.610955 Z" id="Combined-Shape-Copy-31" fill="#FFDDB6"></path>
    </g>
</svg>
